X:1
T: Jerry Daly's Hornpipe
C:
R:Reel
Q: 232
K:G
M:4/4
L:1/8
|:ed|cA BG A2 BA|GE DE G2 cd|((3efg) fa ge dc|B2 GG G2 ed|
cA BG A2 BA|GE DE G2 cd|((3efg) fa ge dB|A2 AA A2:|
|:((3efg)|a^g ag ag ef|ge dB A2 ef|gf ga gf ef|ge dB GA BG|
EA AG Ac BA|GF EF GA Bd|((3efg) fa ge dB|A2 AA A2:|
